public/img/completed-projects.svg

<svg width="48" height="48" viewBox="0 0 48 48" fill="none" xmlns="http://www.w3.org/2000/svg">
<rect width="48" height="48" rx="4" fill="#F4F6FC"/>
<path d="M19.3125 14.7656L15.5625 19.2656C15.4219 19.4062 15.2344 19.5 15 19.5C14.8125 19.5469 14.5781 19.4531 14.4375 19.3125L12.1875 17.0625C11.9062 16.7812 11.9062 16.2656 12.1875 15.9844C12.4688 15.7031 12.9844 15.7031 13.2656 15.9844L14.9062 17.6719L18.1406 13.7812C18.4219 13.4531 18.8906 13.4531 19.2188 13.6875C19.5469 13.9688 19.5938 14.4375 19.3125 14.7656ZM19.3125 22.2656L15.5625 26.7656C15.4219 26.9062 15.2344 27 15 27C14.8125 27.0469 14.5781 26.9531 14.4375 26.8125L12.1875 24.5625C11.9062 24.2812 11.9062 23.7656 12.1875 23.4844C12.4688 23.2031 12.9844 23.2031 13.2656 23.4844L14.9062 25.1719L18.1406 21.2812C18.4219 20.9531 18.8906 20.9531 19.2188 21.1875C19.5469 21.4688 19.5938 21.9375 19.3125 22.2656ZM21 16.5C21 16.125 21.3281 15.75 21.75 15.75H35.25C35.625 15.75 36 16.125 36 16.5C36 16.9219 35.625 17.25 35.25 17.25H21.75C21.3281 17.25 21 16.9219 21 16.5ZM21 24C21 23.625 21.3281 23.25 21.75 23.25H35.25C35.625 23.25 36 23.625 36 24C36 24.4219 35.625 24.75 35.25 24.75H21.75C21.3281 24.75 21 24.4219 21 24ZM19.5 31.5C19.5 31.125 19.8281 30.75 20.25 30.75H35.25C35.625 30.75 36 31.125 36 31.5C36 31.9219 35.625 32.25 35.25 32.25H20.25C19.8281 32.25 19.5 31.9219 19.5 31.5ZM16.5 31.5C16.5 32.3438 15.7969 33 15 33C14.1562 33 13.5 32.3438 13.5 31.5C13.5 30.7031 14.1562 30 15 30C15.7969 30 16.5 30.7031 16.5 31.5Z" fill="#1A75BB"/>
</svg>

<svg xmlns="http://www.w3.org/2000/svg" width="48" height="48" fill="none"><rect width="48" height="48" fill="#F4F6FC" rx="4"/><path fill="#1A75BB" d="m19.313 14.766-3.75 4.5A.78.78 0 0 1 15 19.5c-.187.047-.422-.047-.562-.187l-2.25-2.25c-.282-.282-.282-.797 0-1.079.28-.28.796-.28 1.078 0l1.64 1.688 3.235-3.89c.28-.329.75-.329 1.078-.095.328.282.375.75.093 1.079m0 7.5-3.75 4.5A.78.78 0 0 1 15 27c-.187.047-.422-.047-.562-.187l-2.25-2.25c-.282-.282-.282-.797 0-1.079.28-.28.796-.28 1.078 0l1.64 1.688 3.235-3.89c.28-.329.75-.329 1.078-.095.328.282.375.75.093 1.079M21 16.5c0-.375.328-.75.75-.75h13.5c.375 0 .75.375.75.75 0 .422-.375.75-.75.75h-13.5a.74.74 0 0 1-.75-.75m0 7.5c0-.375.328-.75.75-.75h13.5c.375 0 .75.375.75.75 0 .422-.375.75-.75.75h-13.5A.74.74 0 0 1 21 24m-1.5 7.5c0-.375.328-.75.75-.75h15c.375 0 .75.375.75.75 0 .422-.375.75-.75.75h-15a.74.74 0 0 1-.75-.75m-3 0c0 .844-.703 1.5-1.5 1.5a1.48 1.48 0 0 1-1.5-1.5c0-.797.656-1.5 1.5-1.5.797 0 1.5.703 1.5 1.5"/></svg>
